X: 774
T: Qiu shou
%%abc-version 2.0
%%abcx-abcm2ps-target-version 5.9.1 (29 Sep 2008)
%%abc-creator hum2abc beta
%%abcx-conversion-date 2013/10/02 07:52:30
%%abc-edited-by Helmut Schaffrath
%%humdrum-veritas 1743187426
%%humdrum-veritas-data 786024190
%%continueall 1
%%barnumbers 0
L: 1/16
M: 2/4
K: G
d2> d2 e2 g B [I:setbarnb 1]| 
A GA4g e | 
d e d B A B A D | 
G8 | 
A2 d2 c2 B A | 
G2 F E D2 d2 | 
G2 F E D E D A, | 
D8 |]  



